X:96964842368415
T:11-4-7-7-3-9-8-4-3-8-6-11-11-10-4-5
%%setfont-1 Courier-Bold 8
T:$1K.516f::3:95:27:167:146:86:21:24:117:155:64:164:144:38:145:170::$0
T:$1Perm. No.: 96964842368415$0
M:3/8
L:1/8
Q:1/8=111
%%staves [1 2]
V:1 clef=treble
V:2 clef=bass
K:C
%1
[V:1]|: gce |\
[V:2]|: [E,2C,2]z |\
%2
[V:1] gec |\
[V:2] E,2 z & C,2 x |\
%3
[V:1] f/e/f/d/c/B/ |\
[V:2] [B,2G,2]z |\
%4
[V:1] cc/d/e |\
[V:2] [E,2C,2]z |\
%5
[V:1] [d^F][^fd][af] |\
[V:2] C,C,C,   |\
%6
[V:1] dd/g/b |\
[V:2] [G,2B,,2]z |\
%7
[V:1] c/e/g/d/A/^f/ \
[V:2] C,D,D,, \
%8a
[V:1]|1 [g2d2B2G2]z :|2
[V:2]|1 G,,G,/=F,/E,/D,/ :|2
%8b
[V:1] [g2d2B2G2]z |:\
[V:2] G,,B,/G,/^F,/E,/ |:\
%9
[V:1] d/A/d/^f/a/f/ |\
[V:2] [^F,2D,2]z |\
%10
[V:1] g/b/g/d/B/G/ |\
[V:2] [D,2B,,2]z |\
%11
[V:1] e/g/c'/g/e/c/ |\
[V:2] [G,2C,2][G,C,] |\
%12
[V:1] dG2 |\
[V:2] G,/^F,/G,/D,/B,,/G,,/ |\
%13
[V:1] gce |\
[V:2] [E,/C,/]G,/[E,/C,/]G,/[E,/C,/]G,/ |\
%14
[V:1] cGe |\
[V:2] [E,/C,/]G,/[E,/C,/]G,/[E,/C,/]G,/ |\
%15
[V:1] d/f/A/d/B/d/ |\
[V:2] F,2G, |\
%16
[V:1] c2z :|]
[V:2] C,G,,C,, :|]
